X: 3532
T: Big John Campbell
R: reel
M: 4/4
K: Dmajor
|:DE|FEDF A/B/A AB|d2 fd efdB|AF F/F/F dF F/F/F|AFdF E/F/E DE|
FE D/E/F A2 AB|d2 Ad eAdB|AF F/F/F dF^EF|AFEF D2:|
|:FA|d2 Ad eAdg|fAec dBAd|Be e/e/e efed|
[1 Be e/e/e gfef|dAAd e2 Ag|f2 ec dBAF|B2 eB e/f/e ec|dBAF D2:|
[2 Be e/e/e gfed|Addc dAce|fAeA dAFE|DEFe dAce|dBAF D/E/D||

